X: 69
T:Macclejohn's
T:Johnny Macclejohn
R:Reel
S:Mally
Z:Set Miss Monaghan's / Macclejohn's / Monaghan T
M:4/4
L:1/8
Q:1/2=112
K:D
E|FAA2 BAFA|BAFA BcdA|FAA2 BAFA|(3Bcd AF EFD:|
z|f3e d3A|BAFA BAFA|f3e d3A|(3Bcd AF EFDz|
f3e d3A|BAFA BAFA|f3e d3A|(3Bcd AF EFD3|]
